X: 22
T:The Kesh
R:jig
M:6/8
L:1/8
K:Gmaj
D |:"G" G3 GAB | "D" A3 ABd | "G" edd "C" gdd | "G" edB "D" dBA |
"G" G3 GAB | "D" A3 ABd | "G" edd "C" gdB | "D" AGF "G" G3 :|
|: "G" {A}B3 dBd | "C" ege edB | "G" {A}B3 dBG | "D" ABA AGA |
"G" {A}B3 dBd | "C" ege "G" e2e | "G" gfg "C" aga | "D" bgf "G" g3 :|

%%newpage
%%header "Will Reels 3		$P"

